X: 40558
T: Tommy Peoples'
R: mazurka
M: 3/4
K: Dmajor
|:FG|AF A2 dc|BG B2 ef|ge c2 Bc|BA F2 FG|
AF A2 dc|BG B2 ef|ge cA Bc|d4:|
|:fg|af d2 cd|cB B2 ef|ge c2 Bc|BA F2 fg|
af d2 cd|cB B2 ef|ge cA Bc|d4:|

